X: 11117
T: Duke Of Hamilton, The
R: reel
M: 4/4
K: Dmixolydian
d2 BG c2 AF|B2 GE AG cA|d2 BG c2 AF|1 AF dF ~D2 DA:|2 AF dF ~D2 Dd||
~D2 FD FA Ad|~D2 FD CE Ed|~D2 FD FA AB|AF dF ~D2 Dd|
~D2 FD FA Ad|Dd FD CE Ed|~D2 FD FA AB|AF dF DE FA||

